svgs/duotone/bell-plus.svg

<svg xmlns="http://www.w3.org/2000/svg" viewBox="0 0 448 512"><!--! Font Awesome Pro 6.0.0-alpha3 by @fontawesome - https://fontawesome.com License - https://fontawesome.com/license (Commercial License) --><defs><style>.fa-secondary{opacity:.4}</style></defs><path class="fa-primary" d="M223.1 512C259.4 512 288 483.4 288 448H160C160 483.4 188.6 512 223.1 512zM288 216l-40 .0003V176c0-13.25-10.75-24-24-24S200 162.8 200 176v40L160 216c-13.25 0-24 10.75-24 24S146.8 264 160 264l40 .0002V304c0 13.25 10.75 24 24 24s24-10.75 24-24V264L288 264c13.25 0 24-10.75 24-24S301.3 216 288 216z"/><path class="fa-secondary" d="M439.4 362.3C420.1 341.6 383.9 310.3 383.9 208c0-77.75-54.38-139.9-127.9-155.1V32c0-17.62-14.38-32-32-32C206.3 0 192 14.38 192 32v20.88C118.5 68.13 64.13 130.3 64.13 208c0 102.3-36.25 133.6-55.5 154.3C3 368.2 0 375.9 0 384.1c.125 16.38 13 31.98 32.13 31.98h383.8c19.12 0 32-15.61 32.13-31.98C448 375.9 445 368.2 439.4 362.3zM288 264l-40 .0002V304c0 13.25-10.75 24-24 24S200 317.3 200 304V264L160 264c-13.25 0-24-10.75-24-24S146.8 216 160 216l40 .0003V176c0-13.25 10.75-24 24-24s24 10.75 24 24v40L288 216c13.25 0 24 10.75 24 24S301.3 264 288 264z"/></svg>

<svg xmlns="http://www.w3.org/2000/svg" viewBox="0 0 448 512"><!--! Font Awesome Pro 6.0.0 by @fontawesome - https://fontawesome.com License - https://fontawesome.com/license (Commercial License) Copyright 2022 Fonticons, Inc. --><defs><style>.fa-secondary{opacity:.4}</style></defs><path class="fa-primary" d="M224 152C237.3 152 248 162.7 248 176V216H288C301.3 216 312 226.7 312 240C312 253.3 301.3 264 288 264H248V304C248 317.3 237.3 328 224 328C210.7 328 200 317.3 200 304V264H160C146.7 264 136 253.3 136 240C136 226.7 146.7 216 160 216H200V176C200 162.7 210.7 152 224 152zM224 512C207 512 190.7 505.3 178.7 493.3C166.7 481.3 160 464.1 160 448H288C288 464.1 281.3 481.3 269.3 493.3C257.3 505.3 240.1 512 224 512z"/><path class="fa-secondary" d="M256 32V51.2C329 66.03 384 130.6 384 208V226.8C384 273.9 401.3 319.2 432.5 354.4L439.9 362.7C448.3 372.2 450.4 385.6 445.2 397.1C440 408.6 428.6 416 416 416H32C19.4 416 7.971 408.6 2.809 397.1C-2.353 385.6-.2883 372.2 8.084 362.7L15.5 354.4C46.74 319.2 64 273.9 64 226.8V208C64 130.6 118.1 66.03 192 51.2V32C192 14.33 206.3 0 224 0C241.7 0 256 14.33 256 32H256zM200 176V216H160C146.7 216 136 226.7 136 240C136 253.3 146.7 264 160 264H200V304C200 317.3 210.7 328 224 328C237.3 328 248 317.3 248 304V264H288C301.3 264 312 253.3 312 240C312 226.7 301.3 216 288 216H248V176C248 162.7 237.3 152 224 152C210.7 152 200 162.7 200 176z"/></svg>
